images/nfty.svg

<svg height="250" viewBox="0 0 250 250" width="250" xmlns="http://www.w3.org/2000/svg"><path d="m222.449219 125c0 54-43.628907 97.777344-97.449219 97.777344s-97.449219-43.777344-97.449219-97.777344 43.628907-97.777344 97.449219-97.777344 97.449219 43.777344 97.449219 97.777344zm0 0" fill="#191919"/><g fill="#ffc209"><path d="m156.113281 85.378906 11.117188-19.695312 11.902343 19.773437-11.605468-6.597656zm0 0"/><path d="m156.113281 85.378906 11.414063-6.519531.054687.027344-.429687-13.0625zm0 0"/><path d="m167.230469 65.683594-.078125.140625.429687 13.0625 11.550781 6.570312zm0 0"/><path d="m82.300781 182.5625v-116.882812l96.832031 87.367187v29.511719l-77.464843-69.976563v69.980469zm0 0"/><path d="m164.628906 118.816406c-.765625 0-1.382812-.621094-1.382812-1.382812v-21.371094c0-.761719.617187-1.382812 1.382812-1.382812s1.382813.621093 1.382813 1.382812v21.371094c0 .761718-.617188 1.382812-1.382813 1.382812zm0 0"/><path d="m170.617188 118.816406c-.765626 0-1.382813-.621094-1.382813-1.382812v-21.371094c0-.761719.617187-1.382812 1.382813-1.382812.765624 0 1.382812.621093 1.382812 1.382812v21.371094c0 .761718-.617188 1.382812-1.382812 1.382812zm0 0"/></g></svg>

<svg xmlns="http://www.w3.org/2000/svg" width="250" height="250"><path fill="#191919" d="M222.45 125c0 54-43.63 97.777-97.45 97.777S27.55 179 27.55 125 71.18 27.223 125 27.223 222.45 71 222.45 125zm0 0"/><g fill="#ffc209"><path d="m156.113 85.379 11.117-19.695 11.903 19.773-11.606-6.598zm0 0"/><path d="m156.113 85.379 11.414-6.52.055.028-.43-13.063zM167.23 65.684l-.078.14.43 13.063 11.55 6.57zM82.3 182.563V65.68l96.833 87.367v29.512l-77.465-69.977v69.98zM164.629 118.816a1.383 1.383 0 0 1-1.383-1.382V96.063a1.383 1.383 0 0 1 2.766 0v21.37c0 .762-.617 1.383-1.383 1.383zM170.617 118.816a1.383 1.383 0 0 1-1.383-1.382V96.063a1.383 1.383 0 0 1 2.766 0v21.37c0 .762-.617 1.383-1.383 1.383zm0 0"/></g></svg>
